svg/fluentui-system-icons/ic_fluent_tab_desktop_arrow_clockwise_16_filled.svg

<svg width="16" height="16" viewBox="0 0 16 16" fill="none" xmlns="http://www.w3.org/2000/svg">
<path d="M2 4C2 2.89543 2.89543 2 4 2H7V3.75C7 4.44036 7.55964 5 8.25 5H14V12C14 13.1046 13.1046 14 12 14H9.00036C9.62805 13.1643 10 12.1256 10 11C10 10.0329 9.72543 9.12993 9.25 8.36479V7.25C9.25 6.42157 8.57843 5.75 7.75 5.75C7.29751 5.75 6.89182 5.95035 6.6168 6.26718C6.10966 6.09398 5.5658 6 5 6C3.87439 6 2.83566 6.37194 2 6.99963V4ZM8 2V3.75C8 3.88807 8.11193 4 8.25 4H14C14 2.89543 13.1046 2 12 2H8ZM8.24732 7.19791C8.22127 6.94625 8.00855 6.75 7.75 6.75C7.71608 6.75 7.68296 6.75338 7.65094 6.75981C7.42225 6.80578 7.25 7.00777 7.25 7.25V7.6924C6.60891 7.25559 5.83377 7 5 7C2.79086 7 1 8.79086 1 11C1 13.2091 2.79086 15 5 15C7.20914 15 9 13.2091 9 11C9 10.7239 8.77614 10.5 8.5 10.5C8.22386 10.5 8 10.7239 8 11C8 12.6569 6.65685 14 5 14C3.34315 14 2 12.6569 2 11C2 9.34315 3.34315 8 5 8C5.61393 8 6.18388 8.18395 6.65901 8.5H6C5.72386 8.5 5.5 8.72386 5.5 9C5.5 9.27614 5.72386 9.5 6 9.5H7.75C8.02614 9.5 8.25 9.27614 8.25 9V7.25C8.25 7.23241 8.24909 7.21503 8.24732 7.19791Z" fill="#212121"/>
</svg>

<svg xmlns="http://www.w3.org/2000/svg" width="16" height="16"><path d="M2 4a2 2 0 0 1 2-2h3v1.75C7 4.44 7.56 5 8.25 5H14v7a2 2 0 0 1-2 2H9c.628-.836 1-1.874 1-3a4.98 4.98 0 0 0-.75-2.635V7.25a1.5 1.5 0 0 0-2.633-.983A4.994 4.994 0 0 0 5 6a4.978 4.978 0 0 0-3 1V4Zm6-2v1.75c0 .138.112.25.25.25H14a2 2 0 0 0-2-2H8Zm.247 5.198a.5.5 0 0 0-.997.052v.442A4 4 0 1 0 9 11a.5.5 0 0 0-1 0 3 3 0 1 1-1.341-2.5H6a.5.5 0 0 0 0 1h1.75a.5.5 0 0 0 .5-.5V7.25c0-.018 0-.035-.003-.052Z"/></svg>
